packages/core/src/svgs/tokens/branded/NEWO.svg

<svg width="24" height="24" viewBox="0 0 24 24" fill="none" xmlns="http://www.w3.org/2000/svg">
<path d="M11.9893 17.5325C16.0708 17.5325 19.3795 14.5423 19.3795 10.8536C19.3795 7.16493 16.0708 4.17466 11.9893 4.17466C7.9078 4.17466 4.59912 7.16493 4.59912 10.8536C4.59912 14.5423 7.9078 17.5325 11.9893 17.5325Z" fill="#EA4E8C"/>
<path d="M16.0728 3.17449C15.7894 2.99668 15.4894 2.82998 15.1837 2.69107V17.2324C15.4894 17.0936 15.7894 16.9269 16.0728 16.7491V3.17449ZM17.0008 16.0656C17.3229 15.7877 17.6231 15.4821 17.8953 15.1544V4.76365C17.6175 4.44137 17.3229 4.13576 17.0008 3.85794V16.0656ZM9.71613 2.34101C10.0051 2.25211 10.3051 2.17987 10.6052 2.11875V17.7993C10.3051 17.7437 10.0051 17.6714 9.71613 17.5769V2.34101ZM11.9998 17.9326C11.8442 17.9326 11.6887 17.9326 11.5331 17.916V2.01318C11.833 1.99561 12.1335 1.99561 12.4332 2.01318V17.916L11.9998 17.927V17.9326ZM13.3556 17.8103C13.6613 17.7548 13.9669 17.6826 14.2558 17.5881V2.34101C13.9613 2.25211 13.6613 2.17432 13.3556 2.11875V17.8103ZM6.07105 4.80811C6.34888 4.48027 6.64338 4.17466 6.96565 3.89127V16.0434C6.64338 15.7656 6.34332 15.4544 6.07105 15.1265V4.80255V4.80811ZM8.79374 17.2269C8.47702 17.0824 8.18253 16.9157 7.8936 16.7324V3.19672C8.17698 3.01335 8.47702 2.84666 8.78818 2.70219V17.2213L8.79374 17.2269ZM18.8233 13.7985C19.4344 12.6595 19.7789 11.3536 19.7789 9.96455C19.7789 8.57542 19.4344 7.27519 18.8233 6.13611V13.7985ZM4.22074 9.95897C4.22074 8.59764 4.55413 7.31409 5.14312 6.19168V13.7318C4.53343 12.568 4.21682 11.2729 4.22074 9.95897Z" fill="#FDFE5D"/>
<path d="M8.78881 6.79178C9.08886 6.64731 9.40002 6.53062 9.72233 6.4306V21.6665C9.40002 21.5666 9.08886 21.4443 8.78881 21.3053V6.79178ZM11.5393 22C11.2225 21.9777 10.9169 21.9444 10.6113 21.8888V6.20278C10.9169 6.14722 11.2225 6.10832 11.5393 6.09166V22ZM12.4283 22C12.745 21.9833 13.0562 21.9444 13.3618 21.8888V6.20278C13.0562 6.14722 12.7506 6.11388 12.4339 6.09166V22H12.4283ZM16.0789 20.8331C16.4012 20.6275 16.7124 20.3941 17.0069 20.144V7.95309C16.7124 7.69749 16.4012 7.46966 16.0789 7.26408V20.8331ZM15.1899 21.3165V6.77511C14.8843 6.6362 14.5787 6.51395 14.2564 6.41394V21.6665C14.5731 21.5666 14.8843 21.4443 15.1843 21.3109L15.1899 21.3165ZM5.13818 10.2757C5.39934 9.77564 5.71051 9.31443 6.06612 8.88658V19.205C5.71051 18.7827 5.39934 18.3159 5.13818 17.8159V10.2757ZM7.88866 7.27519C7.56082 7.48634 7.25522 7.71971 6.96071 7.96976V20.1219C7.25522 20.3774 7.56082 20.6052 7.88866 20.8164V7.27519ZM18.835 17.8715C18.5682 18.366 18.2571 18.8272 17.9015 19.2439V8.85325C18.2571 9.2811 18.5682 9.74232 18.835 10.2312V17.8715Z" fill="#E85EF5"/>
</svg>

<svg xmlns="http://www.w3.org/2000/svg" width="24" height="24" fill="none" viewBox="0 0 24 24">
    <path fill="#EA4E8C" d="M11.99 17.533c4.08 0 7.39-2.99 7.39-6.68 0-3.688-3.31-6.678-7.39-6.678-4.082 0-7.39 2.99-7.39 6.679s3.308 6.679 7.39 6.679"/>
    <path fill="#FDFE5D" d="M16.073 3.174a8 8 0 0 0-.89-.483v14.541c.306-.138.606-.305.89-.483zM17 16.066q.485-.418.894-.912V4.764A8.6 8.6 0 0 0 17 3.858zM9.716 2.34c.29-.089.59-.161.89-.222v15.68c-.3-.055-.6-.128-.89-.222zM12 17.933c-.156 0-.311 0-.467-.017V2.013q.45-.026.9 0v15.903l-.433.011zm1.356-.123c.305-.055.61-.127.9-.222V2.341a8 8 0 0 0-.9-.222zM6.07 4.808c.278-.328.572-.633.895-.917v12.152a8 8 0 0 1-.895-.916V4.803zm2.723 12.419a7.4 7.4 0 0 1-.9-.495V3.197q.426-.277.894-.495v14.52zm10.03-3.428a8.1 8.1 0 0 0 .955-3.834c0-1.39-.345-2.69-.956-3.829zM4.22 9.959c0-1.361.333-2.645.922-3.767v7.54a8.1 8.1 0 0 1-.922-3.773"/>
    <path fill="#E85EF5" d="M8.789 6.792c.3-.145.611-.261.933-.361v15.235a7.5 7.5 0 0 1-.933-.36zM11.539 22a9 9 0 0 1-.928-.111V6.203c.306-.056.611-.095.928-.111zm.89 0q.474-.027.933-.111V6.203a9 9 0 0 0-.928-.111V22zm3.65-1.167c.322-.205.633-.439.928-.689V7.954a8 8 0 0 0-.928-.69zm-.89.484V6.775a8 8 0 0 0-.933-.361v15.253c.317-.1.628-.223.928-.356zM5.14 10.276c.26-.5.572-.962.927-1.39v10.319a7.7 7.7 0 0 1-.928-1.39zm2.75-3a9 9 0 0 0-.928.694v12.152c.294.255.6.483.928.694zm10.946 10.596a8 8 0 0 1-.934 1.372V8.854q.534.642.934 1.377z"/>
</svg>
